src/lib/packages/icons/src/assets/line/file-list-edit.svg

<svg xmlns="http://www.w3.org/2000/svg" width="24" height="24" fill="none"><path fill="currentColor" d="M10 19.25H6c-1.577 0-2.25-.673-2.25-2.25V5c0-1.577.673-2.25 2.25-2.25h5.25V5c0 2.418 1.332 3.75 3.75 3.75h2.25V10a.75.75 0 0 0 1.5 0V8a.747.747 0 0 0-.22-.53l-6-6a.749.749 0 0 0-.53-.22H6C3.582 1.25 2.25 2.582 2.25 5v12c0 2.418 1.332 3.75 3.75 3.75h4a.75.75 0 0 0 0-1.5ZM12.75 5V3.811l3.439 3.439H15c-1.577 0-2.25-.673-2.25-2.25Zm-5 6a.75.75 0 1 1-1.5 0 .75.75 0 0 1 1.5 0Zm0 4a.75.75 0 1 1-1.5 0 .75.75 0 0 1 1.5 0ZM14 10.25a.75.75 0 0 1 0 1.5H9.5a.75.75 0 0 1 0-1.5H14ZM11.75 15a.75.75 0 0 1-.75.75H9.5a.75.75 0 0 1 0-1.5H11a.75.75 0 0 1 .75.75Zm9.52-1.28-.99-.99c-.31-.31-.72-.48-1.158-.48h-.002c-.438 0-.851.172-1.16.483l-5.49 5.516a.745.745 0 0 0-.219.529V21c0 .414.336.75.75.75h2.223a.749.749 0 0 0 .529-.219l5.516-5.491a1.638 1.638 0 0 0 .001-2.32Zm-2.149.03c.026 0 .064.007.098.041l.99.99a.138.138 0 0 1 0 .197l-.636.633-1.184-1.184.633-.636a.14.14 0 0 1 .1-.041Zm-4.208 6.5H13.75v-1.163l3.581-3.597 1.179 1.179-3.597 3.581Z"/></svg>

<svg width="24" height="24" viewBox="0 0 24 24" fill="none" xmlns="http://www.w3.org/2000/svg">
<path d="M10 19.25H6C4.423 19.25 3.75 18.577 3.75 17V5C3.75 3.423 4.423 2.75 6 2.75H11.25V5C11.25 7.418 12.582 8.75 15 8.75H17.25V10C17.25 10.414 17.586 10.75 18 10.75C18.414 10.75 18.75 10.414 18.75 10V8C18.75 7.801 18.671 7.61 18.53 7.47L12.53 1.47C12.389 1.329 12.199 1.25 12 1.25H6C3.582 1.25 2.25 2.582 2.25 5V17C2.25 19.418 3.582 20.75 6 20.75H10C10.414 20.75 10.75 20.414 10.75 20C10.75 19.586 10.414 19.25 10 19.25ZM12.75 5V3.811L16.189 7.25H15C13.423 7.25 12.75 6.577 12.75 5ZM7.75 11C7.75 11.414 7.414 11.75 7 11.75C6.586 11.75 6.25 11.414 6.25 11C6.25 10.586 6.586 10.25 7 10.25C7.414 10.25 7.75 10.586 7.75 11ZM7.75 15C7.75 15.414 7.414 15.75 7 15.75C6.586 15.75 6.25 15.414 6.25 15C6.25 14.586 6.586 14.25 7 14.25C7.414 14.25 7.75 14.586 7.75 15ZM14 10.25C14.414 10.25 14.75 10.586 14.75 11C14.75 11.414 14.414 11.75 14 11.75H9.5C9.086 11.75 8.75 11.414 8.75 11C8.75 10.586 9.086 10.25 9.5 10.25H14ZM11.75 15C11.75 15.414 11.414 15.75 11 15.75H9.5C9.086 15.75 8.75 15.414 8.75 15C8.75 14.586 9.086 14.25 9.5 14.25H11C11.414 14.25 11.75 14.586 11.75 15ZM21.27 13.72L20.28 12.73C19.97 12.42 19.5591 12.25 19.1221 12.25C19.1211 12.25 19.1201 12.25 19.1201 12.25C18.6821 12.25 18.2689 12.422 17.9609 12.733L12.47 18.249C12.329 18.389 12.251 18.58 12.251 18.778V21C12.251 21.414 12.587 21.75 13.001 21.75H15.2241C15.4221 21.75 15.6129 21.671 15.7529 21.531L21.269 16.04C21.58 15.731 21.75 15.319 21.751 14.881C21.75 14.443 21.58 14.031 21.27 13.72ZM19.1211 13.75C19.1471 13.75 19.185 13.757 19.219 13.791L20.209 14.781C20.243 14.815 20.25 14.854 20.25 14.88C20.25 14.906 20.243 14.944 20.209 14.978L19.573 15.611L18.3889 14.427L19.022 13.791C19.057 13.757 19.0951 13.75 19.1211 13.75ZM14.9131 20.25H13.75V19.087L17.3311 15.49L18.51 16.669L14.9131 20.25Z" fill="currentColor"/>
</svg>
